style-guide/assets/xd-icons-pencil.svg

<?xml version="1.0" encoding="UTF-8"?>
<svg width="24px" height="24px" viewBox="0 0 24 24" version="1.1" xmlns="http://www.w3.org/2000/svg" xmlns:xlink="http://www.w3.org/1999/xlink">
    <!-- Generator: Sketch 51.3 (57544) - http://www.bohemiancoding.com/sketch -->
    <title>pencil</title>
    <desc>Created with Sketch.</desc>
    <defs>
        <path d="M2,15.16425 L10.625,6.53925 L17.461,13.37525 L8.836,22.00025 L2,22.00025 L2,15.16425 Z M18.875,11.96125 L12.039,5.12525 L14.75,2.41425 L21.586,9.25025 L18.875,11.96125 Z M23.707,8.54325 L15.457,0.29325 C15.066,-0.09775 14.434,-0.09775 14.043,0.29325 L0.294,14.04225 C0.201,14.13525 0.128,14.24525 0.077,14.36825 C0.026,14.49025 0,14.62025 0,14.75025 L0,23.00025 C0,23.55225 0.447,24.00025 1,24.00025 L9.25,24.00025 C9.38,24.00025 9.51,23.97425 9.632,23.92325 C9.755,23.87225 9.865,23.79925 9.958,23.70625 L23.707,9.95725 C24.098,9.56625 24.098,8.93425 23.707,8.54325 Z" id="path-1"></path>
    </defs>
    <g id="pencil" stroke="none" stroke-width="1" fill="none" fill-rule="evenodd">
        <mask id="mask-2" fill="white">
            <use xlink:href="#path-1"></use>
        </mask>
        <use fill="#000000" xlink:href="#path-1"></use>
    </g>
</svg>

<svg viewBox="0 0 24 24" xmlns="http://www.w3.org/2000/svg" xmlns:xlink="http://www.w3.org/1999/xlink">
  <path d="M2 15.164l8.625-8.625 6.836 6.836L8.836 22H2v-6.836zm16.875-3.203l-6.836-6.836 2.711-2.71 6.836 6.835-2.711 2.711zm4.832-3.418l-8.25-8.25a.999.999 0 0 0-1.414 0L.294 14.043A1 1 0 0 0 0 14.75V23a1 1 0 0 0 1 1h8.25a1 1 0 0 0 .708-.294L23.707 9.957a.999.999 0 0 0 0-1.414z"/>
</svg>
